X:1
T: Dunnottar Castle
C:
R:Reel
Q: 232
K:A
M:4/4
L:1/8
E|:AG AB AG FE|AE Ac e2 dc|dc Bd cB Ac|Bc dB AG FE|
AG AB AG FE|AE Ac e2 dc|dc Bd cB Ac|Bc d^d e^e fg|
a2 ag ag fe|fe df e3e|fe df e2 ac|dc BA AG FE|
AG AB AB cd|e2 fa e3e|fd fg ae cA|cB AG A3e:|
a2 ag ag fe|fe df e3e|fe df e2 ac|dc BA AG FE|
AG AB AB cd|e2 fa e3e|fd fg ae cA|ef ge a3||
